exported-svg/moon.svg

<svg height="24" viewBox="0 0 24 24" width="24" xmlns="http://www.w3.org/2000/svg"><path d="m21.1646852 12.8880805c.3473235-.2567282.8348265.0180187.7950822.4480924-.4619631 4.9989089-4.7336173 8.7755037-9.7514582 8.6213221-5.01784098-.1541816-9.04957122-4.1859118-9.20375282-9.2037528-.1541816-5.01784093 3.62241321-9.28949509 8.62132212-9.75145815.4300737-.03974431.7048206.44775863.4480924.79508218-1.9125211 2.58741944-1.6442618 6.18470653.630873 8.45984127 2.2751347 2.2751348 5.8724218 2.5433941 8.4598413.630873zm-9.1669481.0762338c-2.35432335-2.3543234-2.84617157-5.93566654-1.3308031-8.80308364-3.93976469.86579141-6.78976779 4.43123804-6.66284935 8.56179934.13795195 4.4896472 3.74528954 8.0969848 8.23493675 8.2349367 4.1305613.1269185 7.6960079-2.7230846 8.5617993-6.6628493-2.8674171 1.5153685-6.4487602 1.0235202-8.8030836-1.3308031z"/></svg>

<?xml version="1.0" encoding="UTF-8"?>
<svg width="24px" height="24px" viewBox="0 0 24 24" version="1.1" xmlns="http://www.w3.org/2000/svg" xmlns:xlink="http://www.w3.org/1999/xlink">
    <!-- Generator: Sketch 55.2 (78181) - https://sketchapp.com -->
    <title>moon</title>
    <desc>Created with Sketch.</desc>
    <g id="moon" stroke="none" stroke-width="1" fill="none" fill-rule="evenodd">
        <path d="M21.1646852,12.8880805 C21.5120087,12.6313523 21.9995117,12.9060992 21.9597674,13.3361729 C21.4978043,18.3350818 17.2261501,22.1116766 12.2083092,21.957495 C7.19046822,21.8033134 3.15873798,17.7715832 3.00455638,12.7537422 C2.85037478,7.73590127 6.62696959,3.46424711 11.6258785,3.00228405 C12.0559522,2.96253974 12.3306991,3.45004268 12.0739709,3.79736623 C10.1614498,6.38478567 10.4297091,9.98207276 12.7048439,12.2572075 C14.9799786,14.5323423 18.5772657,14.8006016 21.1646852,12.8880805 Z M11.9977371,12.9643143 C9.64341375,10.6099909 9.15156553,7.02864776 10.666934,4.16123066 C6.72716931,5.02702207 3.87716621,8.5924687 4.00408465,12.72303 C4.1420366,17.2126772 7.74937419,20.8200148 12.2390214,20.9579667 C16.3695827,21.0848852 19.9350293,18.2348821 20.8008207,14.2951174 C17.9334036,15.8104859 14.3520605,15.3186376 11.9977371,12.9643143 Z" id="Shape" fill="#000000" fill-rule="nonzero"></path>
    </g>
</svg>
